src/assets/check-green.svg

<svg width="25" height="25" viewBox="0 0 25 25" fill="none" xmlns="http://www.w3.org/2000/svg">
<path d="M12.1215 2.54932C6.60746 2.54932 2.12146 7.03532 2.12146 12.5493C2.12146 18.0633 6.60746 22.5493 12.1215 22.5493C17.6355 22.5493 22.1215 18.0633 22.1215 12.5493C22.1215 7.03532 17.6355 2.54932 12.1215 2.54932ZM10.1225 16.9623L7.11691 13.9632C6.72616 13.5733 6.72537 12.9405 7.11515 12.5496C7.50517 12.1585 8.13847 12.1578 8.52939 12.548L10.1205 14.1363L14.7075 9.54932C15.0979 9.15885 15.731 9.15885 16.1215 9.54932C16.5119 9.93978 16.5119 10.5729 16.1215 10.9633L10.1225 16.9623Z" fill="#2FAB73"/>
</svg>

<svg width="25" height="25" fill="none" xmlns="http://www.w3.org/2000/svg"><path d="M12.121 2.55c-5.514 0-10 4.485-10 10 0 5.513 4.486 10 10 10s10-4.487 10-10c0-5.515-4.485-10-10-10zm-1.998 14.412l-3.006-2.999a1 1 0 111.412-1.415l1.591 1.588 4.588-4.587a1 1 0 111.414 1.414l-6 6z" fill="#2FAB73"/></svg>
